X: 6
T: The Woman Of The House
R: reel
M: 4/4
L: 1/8
K: Dmaj
|:DFFE F3E|DF F2 BFAF|(3EFE DF E2(3FGA|BF F2 BFAF|
DFFE F3E|DF F2 (3BcB AF|DEFD (3EFE DE |(3FED ED Bd d2:||
|:c3A BF F2|BFdF BF F2|c3A BA (3FGA|Beed e3d|
c3A BF F2|BFdF BFFE|DEFD (3EFE DE |(3FED ED Bd d2:||


Tune 321	Setting 27975

